source/assets/images/icon-type-48x.svg

<svg fill="none" height="48" viewBox="0 0 48 48" width="48" xmlns="http://www.w3.org/2000/svg"><path clip-rule="evenodd" d="m0 6c0-3.31371 2.68628-6 6-6h36c3.3137 0 6 2.68629 6 6v36c0 3.3137-2.6863 6-6 6h-36c-3.31372 0-6-2.6863-6-6zm6-4h36c2.2092 0 4 1.79086 4 4v14c0 1.6569-1.3431 3-3 3h-.2101c-1.5851 0-2.8668-1.246-3.2406-2.7864-1.7008-7.009-8.0173-12.2136-15.5493-12.2136s-13.8485 5.2046-15.54931 12.2136c-.3738 1.5404-1.65548 2.7864-3.24063 2.7864h-.21006c-1.65685 0-3-1.3431-3-3v-14c0-2.20914 1.79083-4 4-4zm33.5494 25.7862c.3737-1.5404 1.6554-2.7862 3.2405-2.7862h.2101c1.6569 0 3 1.3431 3 3v14c0 2.2091-1.7908 4-4 4h-14c-1.6569 0-3-1.3431-3-3v-.21c0-1.5852 1.2458-2.8668 2.7862-3.2406 5.7953-1.4062 10.357-5.9679 11.7632-11.7632zm-14.5494 8.0325c0 1.16.99 2.0897 2.121 1.8321 2.697-.614 5.0978-2.0068 6.9534-3.9293.4687-.4856.5379-1.2194.2257-1.8177-.2898-.5555-.8644-.9038-1.4909-.9038h-5.8092c-1.1046 0-2 .8954-2 2zm-4-4.8187c1.1046 0 2 .8954 2 2v2.8187c0 1.16-.99 2.0896-2.121 1.8321-2.697-.614-5.0979-2.0069-6.9535-3.9294-.4687-.4856-.5379-1.2193-.2257-1.8176.2898-.5555.8644-.9038 1.4909-.9038zm-.7862 8.5494c1.5404.3738 2.7862 1.6554 2.7862 3.2406v.21c0 1.6569-1.3431 3-3 3h-14c-2.20917 0-4-1.7909-4-4v-14c0-1.6569 1.34315-3 3-3h.21006c1.58515 0 2.8668 1.2458 3.24058 2.7862 1.40618 5.7953 5.96786 10.357 11.76316 11.7632zm-.05-16.5494c-1.1177 0-2.1427.6214-2.6597 1.6123l-1.5262 2.9251c-.3473.6658.1357 1.4626.8866 1.4626h14.2709c.751 0 1.234-.7968.8866-1.4626l-1.5261-2.9251c-.5171-.9909-1.5421-1.6123-2.6598-1.6123zm3.8361-2c2.0991 0 3.4492-2.2273 2.4783-4.0882-1.0451-2.003-3.9114-2.003-4.9565 0-.9709 1.8609.3792 4.0882 2.4782 4.0882zm-13.9999 3c0 1.921.3869 3.7517 1.087 5.4182.3049.7257 1.2825.7117 1.6466.0139l9.2759-17.779c.3641-.6978-.1842-1.5077-.9539-1.343-6.3182 1.3524-11.0556 6.9679-11.0556 13.6899zm26.913 5.4183c-.3049.7257-1.2825.7116-1.6466.0138l-9.276-17.779c-.3641-.6978.1843-1.5077.9539-1.343 6.3183 1.3524 11.0557 6.9679 11.0557 13.6899 0 1.921-.3869 3.7517-1.087 5.4183z" fill="#000" fill-rule="evenodd"/></svg>

<svg width="48" height="48" viewBox="0 0 48 48" fill="none" xmlns="http://www.w3.org/2000/svg">
<path fill-rule="evenodd" clip-rule="evenodd" d="M0 6C0 2.68629 2.68628 0 6 0H42C45.3137 0 48 2.68629 48 6V42C48 45.3137 45.3137 48 42 48H6C2.68628 48 0 45.3137 0 42V6ZM6 2H42C44.2092 2 46 3.79086 46 6V20C46 21.6569 44.6569 23 43 23H42.7899C41.2048 23 39.9231 21.754 39.5493 20.2136C37.8485 13.2046 31.532 8 24 8C16.468 8 10.1515 13.2046 8.45069 20.2136C8.07689 21.754 6.79521 23 5.21006 23H5C3.34315 23 2 21.6569 2 20V6C2 3.79086 3.79083 2 6 2ZM39.5494 27.7862C39.9231 26.2458 41.2048 25 42.7899 25H43C44.6569 25 46 26.3431 46 28V42C46 44.2091 44.2092 46 42 46H28C26.3431 46 25 44.6569 25 43V42.79C25 41.2048 26.2458 39.9232 27.7862 39.5494C33.5815 38.1432 38.1432 33.5815 39.5494 27.7862ZM25 35.8187C25 36.9787 25.99 37.9084 27.121 37.6508C29.818 37.0368 32.2188 35.644 34.0744 33.7215C34.5431 33.2359 34.6123 32.5021 34.3001 31.9038C34.0103 31.3483 33.4357 31 32.8092 31H27C25.8954 31 25 31.8954 25 33V35.8187ZM21 31C22.1046 31 23 31.8954 23 33V35.8187C23 36.9787 22.01 37.9083 20.879 37.6508C18.182 37.0368 15.7811 35.6439 13.9255 33.7214C13.4568 33.2358 13.3876 32.5021 13.6998 31.9038C13.9896 31.3483 14.5642 31 15.1907 31H21ZM20.2138 39.5494C21.7542 39.9232 23 41.2048 23 42.79V43C23 44.6569 21.6569 46 20 46H6C3.79083 46 2 44.2091 2 42V28C2 26.3431 3.34315 25 5 25H5.21006C6.79521 25 8.07686 26.2458 8.45064 27.7862C9.85682 33.5815 14.4185 38.1432 20.2138 39.5494ZM20.1638 23C19.0461 23 18.0211 23.6214 17.5041 24.6123L15.9779 27.5374C15.6306 28.2032 16.1136 29 16.8645 29H31.1354C31.8864 29 32.3694 28.2032 32.022 27.5374L30.4959 24.6123C29.9788 23.6214 28.9538 23 27.8361 23H20.1638ZM23.9999 21C26.099 21 27.4491 18.7727 26.4782 16.9118C25.4331 14.9088 22.5668 14.9088 21.5217 16.9118C20.5508 18.7727 21.9009 21 23.9999 21ZM10 24C10 25.921 10.3869 27.7517 11.087 29.4182C11.3919 30.1439 12.3695 30.1299 12.7336 29.4321L22.0095 11.6531C22.3736 10.9553 21.8253 10.1454 21.0556 10.3101C14.7374 11.6625 10 17.278 10 24ZM36.913 29.4183C36.6081 30.144 35.6305 30.1299 35.2664 29.4321L25.9904 11.6531C25.6263 10.9553 26.1747 10.1454 26.9443 10.3101C33.2626 11.6625 38 17.278 38 24C38 25.921 37.6131 27.7517 36.913 29.4183Z" fill="black"/>
</svg>
